src/pages/guidelines/pictograms/images/16_Containers_3_do.svg

<?xml version="1.0" encoding="UTF-8"?>
<svg width="288px" height="288px" viewBox="0 0 288 288" version="1.1" xmlns="http://www.w3.org/2000/svg" xmlns:xlink="http://www.w3.org/1999/xlink">
    <!-- Generator: Sketch 53.2 (72643) - https://sketchapp.com -->
    <title>Artboard Copy 29</title>
    <desc>Created with Sketch.</desc>
    <defs>
        <polygon id="path-1" points="0 184 184 184 184 0 0 0"></polygon>
    </defs>
    <g id="Artboard-Copy-29" stroke="none" stroke-width="1" fill="none" fill-rule="evenodd">
        <rect id="Rectangle-3-Copy-45" fill="#FFFFFF" x="0" y="0" width="288" height="288"></rect>
        <g id="Group-26-Copy" transform="translate(52.000000, 52.000000)">
            <path d="M184,92 C184,142.810286 142.810286,184 92,184 C41.1897143,184 0,142.810286 0,92 C0,41.1897143 41.1897143,0 92,0 C142.810286,0 184,41.1897143 184,92" id="Fill-1" fill="#DCDCDC"></path>
            <mask id="mask-2" fill="white">
                <use xlink:href="#path-1"></use>
            </mask>
            <g id="Clip-4"></g>
            <path d="M13.5535714,170.446429 L170.446429,170.446429 L170.446429,13.5535714 L13.5535714,13.5535714 L13.5535714,170.446429 Z M12.7321429,171.267857 L171.267857,171.267857 L171.267857,12.7321429 L12.7321429,12.7321429 L12.7321429,171.267857 Z" id="Fill-3" fill="#006AFE" mask="url(#mask-2)"></path>
            <path d="M39.8392857,144.160714 L144.160714,144.160714 L144.160714,39.8392857 L39.8392857,39.8392857 L39.8392857,144.160714 Z M39.0178571,144.982143 L144.982143,144.982143 L144.982143,39.0178571 L39.0178571,39.0178571 L39.0178571,144.982143 Z" id="Fill-5" fill="#006AFE" mask="url(#mask-2)"></path>
            <polygon id="Fill-6" fill="#FFFFFF" mask="url(#mask-2)" points="13.1428571 39.4285714 39.4285714 39.4285714 39.4285714 13.1428571 13.1428571 13.1428571"></polygon>
            <path d="M13.5535714,39.0178571 L39.0178571,39.0178571 L39.0178571,13.5535714 L13.5535714,13.5535714 L13.5535714,39.0178571 Z M12.7321429,39.8392857 L39.8392857,39.8392857 L39.8392857,12.7321429 L12.7321429,12.7321429 L12.7321429,39.8392857 Z" id="Fill-7" fill="#006AFE" mask="url(#mask-2)"></path>
            <polygon id="Fill-8" fill="#FFFFFF" mask="url(#mask-2)" points="144.571429 39.4285714 170.857143 39.4285714 170.857143 13.1428571 144.571429 13.1428571"></polygon>
            <path d="M144.982143,39.0178571 L170.446429,39.0178571 L170.446429,13.5535714 L144.982143,13.5535714 L144.982143,39.0178571 Z M144.160714,39.8392857 L171.267857,39.8392857 L171.267857,12.7321429 L144.160714,12.7321429 L144.160714,39.8392857 Z" id="Fill-9" fill="#006AFE" mask="url(#mask-2)"></path>
            <polygon id="Fill-10" fill="#FFFFFF" mask="url(#mask-2)" points="13.1428571 170.857143 39.4285714 170.857143 39.4285714 144.571429 13.1428571 144.571429"></polygon>
            <path d="M13.5535714,170.446429 L39.0178571,170.446429 L39.0178571,144.982143 L13.5535714,144.982143 L13.5535714,170.446429 Z M12.7321429,171.267857 L39.8392857,171.267857 L39.8392857,144.160714 L12.7321429,144.160714 L12.7321429,171.267857 Z" id="Fill-11" fill="#006AFE" mask="url(#mask-2)"></path>
            <polygon id="Fill-12" fill="#FFFFFF" mask="url(#mask-2)" points="144.571429 170.857143 170.857143 170.857143 170.857143 144.571429 144.571429 144.571429"></polygon>
            <path d="M144.982143,170.446429 L170.446429,170.446429 L170.446429,144.982143 L144.982143,144.982143 L144.982143,170.446429 Z M144.160714,171.267857 L171.267857,171.267857 L171.267857,144.160714 L144.160714,144.160714 L144.160714,171.267857 Z" id="Fill-13" fill="#006AFE" mask="url(#mask-2)"></path>
            <path d="M121.569786,89.8984571 C120.915929,89.8984571 120.386929,89.3694571 120.386929,88.7156 L120.386929,82.1441714 C120.386929,81.4870286 120.915929,80.9580286 121.569786,80.9580286 C122.223643,80.9580286 122.752643,81.4870286 122.752643,82.1441714 L122.752643,88.7156 C122.752643,89.3694571 122.223643,89.8984571 121.569786,89.8984571" id="Fill-14" fill="#000000" mask="url(#mask-2)"></path>
            <path d="M137.833086,83.1601143 C137.5308,83.1601143 137.228514,83.0451143 136.998514,82.8151143 L132.352514,78.1658286 C131.889229,77.7058286 131.889229,76.9534 132.352514,76.4934 C132.812514,76.0301143 133.561657,76.0301143 134.021657,76.4934 L138.667657,81.1394 C139.130943,81.5994 139.130943,82.3518286 138.667657,82.8151143 C138.437657,83.0451143 138.135371,83.1601143 137.833086,83.1601143" id="Fill-15" fill="#000000" mask="url(#mask-2)"></path>
            <path d="M105.306486,83.1601143 C105.0042,83.1601143 104.701914,83.0451143 104.471914,82.8151143 C104.008629,82.3518286 104.008629,81.5994 104.471914,81.1394 L109.117914,76.4934 C109.5812,76.0301143 110.327057,76.0301143 110.790343,76.4934 C111.253629,76.9534 111.253629,77.7058286 110.790343,78.1658286 L106.141057,82.8151143 C105.911057,83.0451143 105.608771,83.1601143 105.306486,83.1601143" id="Fill-16" fill="#000000" mask="url(#mask-2)"></path>
            <path d="M121.569786,74.3872571 C116.785786,74.3872571 112.8955,70.4969714 112.8955,65.7129714 C112.8955,60.9289714 116.785786,57.0419714 121.569786,57.0419714 C126.353786,57.0419714 130.244071,60.9289714 130.244071,65.7129714 C130.244071,70.4969714 126.353786,74.3872571 121.569786,74.3872571 M121.569786,54.6729714 C115.481357,54.6729714 110.529786,59.6278286 110.529786,65.7129714 C110.529786,71.8014 115.481357,76.7562571 121.569786,76.7562571 C127.658214,76.7562571 132.609786,71.8014 132.609786,65.7129714 C132.609786,59.6278286 127.658214,54.6729714 121.569786,54.6729714" id="Fill-17" fill="#000000" mask="url(#mask-2)"></path>
            <path d="M144.569786,66.8984571 L137.998357,66.8984571 C137.3445,66.8984571 136.8155,66.3694571 136.8155,65.7156 C136.8155,65.0584571 137.3445,64.5294571 137.998357,64.5294571 L144.569786,64.5294571 C145.223643,64.5294571 145.752643,65.0584571 145.752643,65.7156 C145.752643,66.3694571 145.223643,66.8984571 144.569786,66.8984571" id="Fill-18" fill="#000000" mask="url(#mask-2)"></path>
            <path d="M105.141214,66.8984571 L98.5697857,66.8984571 C97.9159286,66.8984571 97.3869286,66.3694571 97.3869286,65.7156 C97.3869286,65.0584571 97.9159286,64.5294571 98.5697857,64.5294571 L105.141214,64.5294571 C105.795071,64.5294571 106.324071,65.0584571 106.324071,65.7156 C106.324071,66.3694571 105.795071,66.8984571 105.141214,66.8984571" id="Fill-19" fill="#000000" mask="url(#mask-2)"></path>
            <path d="M133.187086,55.2795143 C132.8848,55.2795143 132.582514,55.1645143 132.352514,54.9345143 C131.889229,54.4712286 131.889229,53.7188 132.352514,53.2588 L136.998514,48.6128 C137.458514,48.1495143 138.207657,48.1495143 138.667657,48.6128 C139.130943,49.0728 139.130943,49.8252286 138.667657,50.2852286 L134.021657,54.9345143 C133.791657,55.1645143 133.489371,55.2795143 133.187086,55.2795143" id="Fill-20" fill="#000000" mask="url(#mask-2)"></path>
            <path d="M109.954457,55.2795143 C109.652171,55.2795143 109.349886,55.1645143 109.119886,54.9345143 L104.4706,50.2852286 C104.007314,49.8252286 104.007314,49.0728 104.4706,48.6128 C104.933886,48.1495143 105.679743,48.1495143 106.143029,48.6128 L110.789029,53.2588 C111.252314,53.7188 111.252314,54.4712286 110.789029,54.9345143 C110.559029,55.1645143 110.256743,55.2795143 109.954457,55.2795143" id="Fill-21" fill="#000000" mask="url(#mask-2)"></path>
            <path d="M121.569786,50.4698857 C120.915929,50.4698857 120.386929,49.9408857 120.386929,49.2870286 L120.386929,42.7156 C120.386929,42.0584571 120.915929,41.5294571 121.569786,41.5294571 C122.223643,41.5294571 122.752643,42.0584571 122.752643,42.7156 L122.752643,49.2870286 C122.752643,49.9408857 122.223643,50.4698857 121.569786,50.4698857" id="Fill-22" fill="#000000" mask="url(#mask-2)"></path>
            <path d="M127.2636,142.078229 C113.135029,126.441514 96.3680286,119.469229 72.8981714,119.469229 L45.9980286,119.469229 L45.9980286,117.100229 L72.8981714,117.100229 C97.0941714,117.100229 114.403314,124.318943 129.018171,140.494514 L127.2636,142.078229 Z" id="Fill-23" fill="#000000" mask="url(#mask-2)"></path>
            <path d="M127.2636,128.935371 C113.135029,113.298657 96.3680286,106.326371 72.8981714,106.326371 L45.9980286,106.326371 L45.9980286,103.957371 L72.8981714,103.957371 C97.0941714,103.957371 114.403314,111.176086 129.018171,127.351657 L127.2636,128.935371 Z" id="Fill-24" fill="#000000" mask="url(#mask-2)"></path>
            <path d="M50.4666,62.4285714 C50.4666,59.4582857 52.8848857,57.04 55.8551714,57.04 C58.8254571,57.04 61.2437429,59.4582857 61.2437429,62.4285714 C61.2437429,65.3988571 58.8254571,67.8171429 55.8551714,67.8171429 C52.8848857,67.8171429 50.4666,65.3988571 50.4666,62.4285714 M70.1808857,65.7142857 C70.1808857,62.744 72.5991714,60.3257143 75.5694571,60.3257143 C78.5397429,60.3257143 80.9580286,62.744 80.9580286,65.7142857 C80.9580286,68.6845714 78.5397429,71.1028571 75.5694571,71.1028571 C72.5991714,71.1028571 70.1808857,68.6845714 70.1808857,65.7142857 M76.7523143,90.8894286 L76.7523143,73.3798571 C80.4684571,72.8081429 83.3237429,69.5881429 83.3237429,65.7142857 C83.3237429,61.4362857 79.8441714,57.96 75.5694571,57.96 C71.2947429,57.96 67.8151714,61.4362857 67.8151714,65.7142857 C67.8151714,69.5881429 70.6704571,72.8081429 74.3866,73.3798571 L74.3866,90.8434286 C73.8871714,90.8368571 73.4008857,90.8171429 72.8981714,90.8171429 L57.0380286,90.8171429 L57.0380286,70.0941429 C60.7541714,69.5224286 63.6094571,66.3024286 63.6094571,62.4285714 C63.6094571,58.1505714 60.1298857,54.6742857 55.8551714,54.6742857 C51.5804571,54.6742857 48.1008857,58.1505714 48.1008857,62.4285714 C48.1008857,66.3024286 50.9561714,69.5224286 54.6723143,70.0941429 L54.6723143,90.8171429 L45.9980286,90.8171429 L45.9980286,93.1828571 L72.8981714,93.1828571 C96.3680286,93.1828571 113.135029,100.155143 127.2636,115.791857 L129.018171,114.208143 C115.191886,98.9065714 98.9506,91.6352857 76.7523143,90.8894286" id="Fill-25" fill="#000000" mask="url(#mask-2)"></path>
        </g>
    </g>
</svg>

<svg xmlns="http://www.w3.org/2000/svg" xmlns:xlink="http://www.w3.org/1999/xlink" viewBox="0 0 288 288"><defs><path id="a" d="M0 184h184V0H0z"/></defs><g fill="none" fill-rule="evenodd"><path fill="#FFF" d="M0 0h288v288H0z"/><g transform="translate(52 52)"><path d="M184 92c0 50.81-41.19 92-92 92S0 142.81 0 92 41.19 0 92 0s92 41.19 92 92" fill="#DCDCDC"/><mask id="b" fill="#fff"><use xlink:href="#a"/></mask><path d="M13.554 170.446h156.892V13.554H13.554v156.892zm-.822.822h158.536V12.732H12.732v158.536z" fill="#006AFE" mask="url(#b)"/><path d="M39.84 144.16h104.32V39.84H39.84v104.32zm-.822.822h105.964V39.018H39.018v105.964z" fill="#006AFE" mask="url(#b)"/><path fill="#FFF" mask="url(#b)" d="M13.143 39.429h26.286V13.143H13.143z"/><path d="M13.554 39.018h25.464V13.554H13.554v25.464zm-.822.821H39.84V12.732H12.732V39.84z" fill="#006AFE" mask="url(#b)"/><path fill="#FFF" mask="url(#b)" d="M144.571 39.429h26.286V13.143h-26.286z"/><path d="M144.982 39.018h25.464V13.554h-25.464v25.464zm-.821.821h27.107V12.732H144.16V39.84z" fill="#006AFE" mask="url(#b)"/><path fill="#FFF" mask="url(#b)" d="M13.143 170.857h26.286v-26.286H13.143z"/><path d="M13.554 170.446h25.464v-25.464H13.554v25.464zm-.822.822H39.84V144.16H12.732v27.107z" fill="#006AFE" mask="url(#b)"/><path fill="#FFF" mask="url(#b)" d="M144.571 170.857h26.286v-26.286h-26.286z"/><path d="M144.982 170.446h25.464v-25.464h-25.464v25.464zm-.821.822h27.107V144.16H144.16v27.107z" fill="#006AFE" mask="url(#b)"/><path d="M121.57 89.898a1.182 1.182 0 01-1.183-1.182v-6.572a1.183 1.183 0 112.366 0v6.572c0 .653-.53 1.182-1.183 1.182m16.263-6.738c-.302 0-.604-.115-.834-.345l-4.646-4.65a1.18 1.18 0 010-1.672 1.176 1.176 0 011.669 0l4.646 4.646a1.184 1.184 0 01-.835 2.021m-32.527 0a1.184 1.184 0 01-.835-2.02l4.647-4.647a1.18 1.18 0 011.672 0 1.18 1.18 0 010 1.673l-4.649 4.65c-.23.23-.532.344-.835.344m16.264-8.773c-4.784 0-8.674-3.89-8.674-8.674 0-4.784 3.89-8.671 8.674-8.671 4.784 0 8.674 3.887 8.674 8.671 0 4.784-3.89 8.674-8.674 8.674m0-19.714c-6.089 0-11.04 4.955-11.04 11.04 0 6.088 4.951 11.043 11.04 11.043 6.088 0 11.04-4.955 11.04-11.043 0-6.085-4.952-11.04-11.04-11.04m23 12.225h-6.572a1.182 1.182 0 01-1.183-1.182c0-.658.53-1.187 1.183-1.187h6.572a1.184 1.184 0 010 2.369m-39.429 0H98.57a1.182 1.182 0 01-1.183-1.182c0-.658.529-1.187 1.183-1.187h6.571a1.184 1.184 0 010 2.369m28.046-11.618a1.184 1.184 0 01-.835-2.02L137 48.612a1.176 1.176 0 011.669 0 1.18 1.18 0 010 1.672l-4.646 4.65c-.23.23-.533.345-.835.345m-23.234.001c-.302 0-.604-.115-.834-.345l-4.65-4.65a1.18 1.18 0 010-1.672 1.18 1.18 0 011.673 0l4.646 4.646a1.184 1.184 0 01-.835 2.02m11.616-4.809a1.182 1.182 0 01-1.183-1.183v-6.571a1.183 1.183 0 112.366 0v6.571c0 .654-.53 1.183-1.183 1.183m5.694 91.608c-14.129-15.636-30.896-22.609-54.366-22.609h-26.9V117.1h26.9c24.196 0 41.505 7.219 56.12 23.395l-1.754 1.583z" fill="#000" mask="url(#b)"/><path d="M127.264 128.935c-14.129-15.636-30.896-22.609-54.366-22.609h-26.9v-2.369h26.9c24.196 0 41.505 7.22 56.12 23.395l-1.754 1.583z" fill="#000" mask="url(#b)"/><path d="M50.467 62.429a5.396 5.396 0 015.388-5.389 5.396 5.396 0 015.389 5.389 5.396 5.396 0 01-5.389 5.388 5.396 5.396 0 01-5.388-5.388m19.714 3.285a5.396 5.396 0 015.388-5.388 5.396 5.396 0 015.389 5.388 5.396 5.396 0 01-5.389 5.389 5.396 5.396 0 01-5.388-5.389m6.571 25.175V73.38c3.716-.57 6.572-3.79 6.572-7.665 0-4.278-3.48-7.754-7.755-7.754-4.274 0-7.754 3.476-7.754 7.754 0 3.874 2.855 7.094 6.572 7.666v17.463c-.5-.006-.986-.026-1.489-.026h-15.86V70.094c3.716-.572 6.571-3.792 6.571-7.665 0-4.278-3.48-7.755-7.754-7.755-4.275 0-7.754 3.477-7.754 7.755 0 3.873 2.855 7.093 6.571 7.665v20.723h-8.674v2.366h26.9c23.47 0 40.237 6.972 54.366 22.609l1.754-1.584C115.192 98.907 98.951 91.635 76.752 90.89" fill="#000" mask="url(#b)"/></g></g></svg>
